X:1
T:Title
%%score { ( 1 3 ) | ( 2 4 ) }
L:1/8
Q:1/4=106
M:3/4
K:Ab
V:1 treble nm="Grand Piano"
V:3 treble 
V:2 bass 
V:4 bass 
V:1
 [Ec]2 [=D_c]2 [Fd]2 | [Ec]2 [CA]4 | [FA]2 [EG]2 [DF]2 | [CE]6 | [DE]2 [DG]2 [DB]2 | [CA]2 [Ec]4 | %6
w: I.~H.~Meredith * *||||||
 [=Dc]2 [DB]2 [DF]2 | [DB]6 | [Ec]2 [=D_c]2 [Fd]2 | [Ec]2 [CA]4 | [FA]2 [EG]2 [DF]2 | [CE]6 | %12
w: ||||||
 [CA]2 [Ec]2 [_Ge]2 | [_Ge]2 [Fd]4 | [Fd]2 [Ec]2 [DB]2 | [CA]6 | [Ec]2 [DB]2 [CA]2 | [Ed]2 G4 | %18
w: ||||||
 d2 F2 G2 | [CE]6 | [CE]2 [EA]2 [EA]2 | [EG]2 [EB]4 | [=Dc]2 [DB]2 D2 |[M:7/8] E-E-E- E- E3 | %24
w: ||||||
[M:3/4] E2 F2 A2 | A2 G4 | E2 G2 d2 | [Ec]6 | c2 d2 e2 | e2 d4 | %30
w: ||||||
 [Gd]2 [EGc]2 [DGB]2[Q:1/4=104][Q:1/4=103][Q:1/4=101][Q:1/4=99][Q:1/4=98][Q:1/4=96][Q:1/4=94][Q:1/4=93][Q:1/4=91][Q:1/4=89][Q:1/4=88][Q:1/4=86][Q:1/4=84][Q:1/4=83][Q:1/4=81] | %31
w: |
 [A,CEA]6 |] %32
w: |
V:2
 A,,E, A,2 E,2 | A,,E, A,2 E,2 | D,A, D2 A,2 | A,,E, A,2 E,2 | E,,B,, E,2 E,,2 | A,,E, A,2 E,2 | %6
 B,,F, B,2 B,,2 | E,,E, G,2 E,2 | A,,E, A,2 E,2 | A,,E, A,2 E,2 | D,A, D2 A,2 | A,,E, A,2 E,2 | %12
 A,,E, A,2 C,2 | D,A, D2 A,2 | E,,E, G,2 E,2 | [A,,E,]6 | [A,,A,]2 [A,,E,]2 [A,,E,]2 | %17
 [B,,G,]2 [E,B,E]4 | [E,G,E]2 [E,A,E]2 [E,B,D]2 | [A,,A,]6 | [A,,A,]2 [C,A,]2 [_C,A,]2 | %21
 [B,,B,]2 [B,,G,]4 | [B,,F,]2 [B,,A,]2 [B,,A,B,]2 |[M:7/8] [G,B,]2 A,2 B,3 | %24
[M:3/4] [A,C]2 [A,CE]2 [A,CE]2 | [B,DE]2 [B,DE]4 | [E,D]2 [E,B,E]2 [E,G,E]2 | [A,,A,]6 | %28
 [A,E]2 [A,F]2 [A,C_G]2 | [=A,C_G]2 [B,DF]4 | B,F E,2 E,2 | A,,6 |] %32
V:3
 x6 | x6 | x6 | x6 | x6 | x6 | x6 | x6 | x6 | x6 | x6 | x6 | x6 | x6 | x6 | x6 | x6 | x6 | x6 | %19
 x6 | x6 | x6 | x6 |[M:7/8] z2 C2 D3 |[M:3/4] x6 | x6 | x6 | x6 | x6 | x6 | x6 | x6 |] %32
V:4
 x6 | x6 | x6 | x6 | x6 | x6 | x6 | x6 | x6 | x6 | x6 | x6 | x6 | x6 | x6 | x6 | x6 | x6 | x6 | %19
 x6 | x6 | x6 | x6 |[M:7/8] E,-E,-E,- E,- E,3 |[M:3/4] x6 | x6 | x6 | x6 | x6 | x6 | E,2 z2 z2 | %31
 x6 |] %32

